!!!COM: Felix Mendelssohn
!!!CNT: Deutsch
!!!TXO: Deutsch
!!!OTL: Gesta2ndniss
!!!LYR: Unknown
!!!OPS: Op. 9
!!!ONM: No. 2
!!!ENC: Daniel Alt & Leigh VanHandel
!!!YOR: Sa2mmtliche Lieder fu2r eine Singstimme 
!!!YOR: Neu revidirt von Dr. L. Benda, Ausgabe fu2r mittlere Stimme
!!!YOR: Braunschweig. Henry Litolff's Verlag. Boston and New York: Arthur P. Schmidt.
!!!ODT: 1830/
!!NB: Date is publication date
**kern
*staff1
=1-
*clefG2
*k[f#c#g#]
*M3/4
2.r
=2
4r
4r
{8.cc#
16b
=3
4dd
4cc#
8.ee
16ee
=4
4ee
8dd
8r
8a
8a
=5
4.dd
8a
8gn
8fn
=6
4e}
4r
{8.a
16a
=7
4.ccn
8a
8f#
8e
=8
4e
8d#
8r
12a
12g#
12f#
=9
12b
12a
12g#
4ee
8dd#
8cc#
=10
2b
4ccn}
=11
{2cc#
4f#
=12
2ee
4f#
=13
8g#
8e
4.b
8a
=14
4g#}
4r
4r
=15
{8e
8f#
8g#
8a
8b
8cc#
=16
4.dd
8dd
8cc#
8b
=17
8.a
16g#
4g#
4a
=18
2b}
{8cc#
8a
=19
4g#
8f#
8e
8cc#
8a
=20
4g#
8f#
8r
8e
8a
=21
8cc#
8ff#
4.ee
8dd
=22
2.cc#}
=23
{2dd#
4dd#
=24
[2.ee
=25
8ee]
8cc#
8a
8f#
8.e
16d
=26
2d
4c#}
==
*-
